X:145 
T:Mick Hand's (reel) 
T:Sand[y]mount, Sandpiper
B:CRE3.170 (Ril MhÃÂÃÂÃÂÃÂ­cheail Mhig Laithimh)
F:file ID: cre.3/145mick_h
R:reel
L:1/8
Q:180
M:C
K:Am
eAAG A3G|EGDG EGDG|EAAG A2 (3B^cd|eg^fa gedg:|
eaag a2ba|gede gedg|eaag aaga|bagb a3g|
eaag a2ba|gedB dega|(3bag a^f g2fg|e3d e2ag||

%%%

